assets/light/buildings-light.svg

<svg id="Flat" xmlns="http://www.w3.org/2000/svg" viewBox="0 0 256 256">
  <path d="M240,209.98316H229.99414v-106a14.01572,14.01572,0,0,0-14-14h-66v-50a14.01572,14.01572,0,0,0-14-14h-96a14.01572,14.01572,0,0,0-14,14v170H16a6,6,0,0,0,0,12H240a6,6,0,0,0,0-12Zm-24.00586-108a2.00229,2.00229,0,0,1,2,2v106h-68v-108Zm-178-62a2.00229,2.00229,0,0,1,2-2h96a2.00229,2.00229,0,0,1,2,2v170h-100Zm20,32a6.00029,6.00029,0,0,1,6-6h32a6,6,0,1,1,0,12h-32A6.0003,6.0003,0,0,1,57.99414,71.98316Zm60,64a6.0003,6.0003,0,0,1-6,6h-32a6,6,0,0,1,0-12h32A6.00029,6.00029,0,0,1,117.99414,135.98316Zm-16,40a6.0003,6.0003,0,0,1-6,6h-32a6,6,0,0,1,0-12h32A6.00029,6.00029,0,0,1,101.99414,175.98316Zm96,0a6.0003,6.0003,0,0,1-6,6h-16a6,6,0,0,1,0-12h16A6.00029,6.00029,0,0,1,197.99414,175.98316Zm-28-40a6.00029,6.00029,0,0,1,6-6h16a6,6,0,1,1,0,12h-16A6.0003,6.0003,0,0,1,169.99414,135.98316Z"/>
</svg>

<svg xmlns="http://www.w3.org/2000/svg" viewBox="0 0 256 256"><path d="M240,210H230V104a14,14,0,0,0-14-14H150V40a14,14,0,0,0-14-14H40A14,14,0,0,0,26,40V210H16a6,6,0,0,0,0,12H240a6,6,0,0,0,0-12ZM216,102a2,2,0,0,1,2,2V210H150V102ZM38,40a2,2,0,0,1,2-2h96a2,2,0,0,1,2,2V210H38ZM58,72a6,6,0,0,1,6-6H96a6,6,0,0,1,0,12H64A6,6,0,0,1,58,72Zm60,64a6,6,0,0,1-6,6H80a6,6,0,0,1,0-12h32A6,6,0,0,1,118,136Zm-16,40a6,6,0,0,1-6,6H64a6,6,0,0,1,0-12H96A6,6,0,0,1,102,176Zm96,0a6,6,0,0,1-6,6H176a6,6,0,0,1,0-12h16A6,6,0,0,1,198,176Zm-28-40a6,6,0,0,1,6-6h16a6,6,0,0,1,0,12H176A6,6,0,0,1,170,136Z"/></svg>
